packages/icons/src/components/Logo/assets/light/grafana.svg

<svg width="20" height="20" viewBox="0 0 20 20" fill="none" xmlns="http://www.w3.org/2000/svg">
<path d="M19.3746 8.82645C19.3416 8.49036 19.2865 8.10468 19.1763 7.67493C19.0661 7.25069 18.9008 6.78237 18.6584 6.29752C18.4159 5.81267 18.1019 5.31129 17.6942 4.82094C17.5344 4.6281 17.3581 4.44077 17.1708 4.25895C17.4518 3.1405 16.8292 2.1708 16.8292 2.1708C15.7548 2.10468 15.0716 2.50689 14.8182 2.68871C14.7741 2.67218 14.7355 2.65014 14.6914 2.63361C14.5096 2.56198 14.3223 2.49036 14.1239 2.42975C13.9311 2.36915 13.7328 2.31405 13.5289 2.26446C13.325 2.21488 13.1212 2.17631 12.9118 2.14325C12.8733 2.13774 12.8402 2.13223 12.8016 2.12672C12.3333 0.628099 10.989 0 10.989 0C9.48483 0.953168 9.20384 2.2865 9.20384 2.2865C9.20384 2.2865 9.19833 2.31405 9.18731 2.36364C9.10467 2.38567 9.02202 2.41322 8.93938 2.43526C8.82368 2.46832 8.70797 2.5124 8.59778 2.55647C8.48208 2.60055 8.37189 2.64463 8.25618 2.69421C8.03029 2.79339 7.80439 2.90358 7.58401 3.02479C7.36913 3.14601 7.15977 3.27824 6.95591 3.41598L6.90082 3.39394C4.81817 2.60055 2.97245 3.55372 2.97245 3.55372C2.80165 5.76859 3.8044 7.16253 4.00275 7.41598C3.95316 7.55372 3.90909 7.69146 3.86501 7.8292C3.71074 8.33058 3.59504 8.84297 3.52341 9.37741C3.51239 9.45455 3.50137 9.53168 3.49586 9.60881C1.56749 10.562 1 12.5069 1 12.5069C2.6033 14.3526 4.47658 14.4683 4.47658 14.4683L4.48209 14.4628C4.719 14.8871 4.99448 15.2893 5.30302 15.6694C5.43525 15.8292 5.56748 15.978 5.71073 16.1267C5.12671 17.8017 5.79338 19.1901 5.79338 19.1901C7.5785 19.2562 8.75205 18.4077 8.99998 18.2149C9.17629 18.2755 9.35811 18.3306 9.53993 18.3747C10.0909 18.5179 10.6529 18.6006 11.2149 18.6226C11.3526 18.6281 11.4958 18.6336 11.6336 18.6281H11.8319L11.9201 18.6226V18.6281C12.7631 19.8292 14.2396 20 14.2396 20C15.292 18.8926 15.3526 17.7906 15.3526 17.5537V17.5372V17.5041V17.4545C15.573 17.3003 15.7823 17.135 15.9807 16.9532C16.3994 16.573 16.7686 16.1377 17.0771 15.6694L17.1597 15.5372C18.3498 15.6033 19.1928 14.7989 19.1928 14.7989C18.9945 13.5592 18.2892 12.9532 18.1405 12.8375C17.9917 12.7218 18.135 12.832 18.1239 12.8264C18.1129 12.8209 18.1129 12.8154 18.1129 12.8154C18.1074 12.8099 18.0964 12.8044 18.0854 12.7989C18.0909 12.7218 18.0964 12.6501 18.1019 12.573C18.1129 12.4408 18.1129 12.303 18.1129 12.1708V11.9945V11.9614L18.1074 11.8788L18.1019 11.7686C18.1019 11.73 18.0964 11.697 18.0909 11.6639C18.0854 11.6309 18.0854 11.5923 18.0799 11.5592L18.0688 11.4545L18.0523 11.3499C18.0303 11.2121 18.0082 11.0799 17.9752 10.9421C17.8485 10.4077 17.6391 9.90083 17.3691 9.44353C17.0936 8.98623 16.752 8.58402 16.3609 8.24242C15.9752 7.90083 15.5399 7.62534 15.0881 7.42149C14.6308 7.21763 14.157 7.0854 13.6832 7.02479C13.4463 6.99174 13.2093 6.98072 12.9724 6.98623H12.7961L12.708 6.99174C12.6749 6.99174 12.6419 6.99725 12.6143 6.99725C12.4931 7.00826 12.3719 7.02479 12.2562 7.04683C11.7823 7.13499 11.3361 7.30578 10.9449 7.5427C10.5537 7.77961 10.2121 8.07163 9.93662 8.4022C9.66114 8.73278 9.44627 9.10193 9.29751 9.48209C9.14875 9.86226 9.0661 10.259 9.04406 10.6391C9.03855 10.7328 9.03855 10.832 9.03855 10.9256V10.9972L9.04406 11.0744C9.04957 11.1185 9.04957 11.168 9.05508 11.2121C9.07161 11.405 9.11018 11.5923 9.15976 11.7686C9.26445 12.1267 9.42974 12.4518 9.63359 12.7273C9.83745 13.0028 10.0854 13.2286 10.3443 13.4105C10.6033 13.5868 10.8843 13.7135 11.1598 13.7961C11.4352 13.8788 11.7107 13.9118 11.9697 13.9118H12.1129C12.1295 13.9118 12.146 13.9118 12.1625 13.9063C12.1901 13.9063 12.2176 13.9008 12.2452 13.9008C12.2507 13.9008 12.2617 13.9008 12.2672 13.8953L12.2947 13.8898C12.3113 13.8898 12.3278 13.8843 12.3443 13.8843C12.3774 13.8788 12.4049 13.8733 12.438 13.8678C12.4711 13.8623 12.4986 13.8567 12.5261 13.8457C12.5868 13.8347 12.6419 13.8127 12.6969 13.7961C12.8071 13.7576 12.9173 13.7135 13.011 13.6639C13.1102 13.6143 13.1983 13.5537 13.2865 13.4986C13.3085 13.4821 13.3361 13.4656 13.3581 13.4435C13.4463 13.3719 13.4628 13.2397 13.3912 13.1515C13.3306 13.0744 13.2204 13.0523 13.1322 13.1019L13.0661 13.135C12.989 13.1736 12.9118 13.2066 12.8292 13.2342C12.7465 13.2617 12.6584 13.2837 12.5702 13.3003C12.5261 13.3058 12.4821 13.3113 12.4325 13.3168C12.4104 13.3168 12.3884 13.3223 12.3609 13.3223H12.2286C12.2011 13.3223 12.1735 13.3223 12.146 13.3168H12.1129C12.1019 13.3168 12.0854 13.3168 12.0744 13.3113C12.0468 13.3058 12.0248 13.3058 11.9972 13.3003C11.7934 13.2727 11.5895 13.2121 11.3967 13.124C11.1983 13.0358 11.011 12.9146 10.8402 12.7603C10.6694 12.6061 10.5206 12.4242 10.4049 12.2149C10.2892 12.0055 10.2066 11.7741 10.168 11.5317C10.1515 11.4105 10.1405 11.2837 10.146 11.1625C10.146 11.1295 10.1515 11.0964 10.1515 11.0634V11.0193C10.1515 11.0028 10.157 10.9862 10.157 10.9697C10.1625 10.9036 10.1735 10.8375 10.1846 10.7713C10.2782 10.2424 10.5427 9.72452 10.9504 9.33333C11.0551 9.23416 11.1653 9.14601 11.281 9.06336C11.3967 8.98072 11.5234 8.90909 11.6556 8.84849C11.7879 8.78788 11.9201 8.73829 12.0633 8.69972C12.2011 8.66116 12.3443 8.63912 12.4931 8.62259C12.5647 8.61708 12.6363 8.61157 12.7135 8.61157H12.8843L12.9449 8.61708C13.1047 8.6281 13.2589 8.65014 13.4132 8.6887C13.7217 8.75482 14.0248 8.87052 14.3058 9.02479C14.8677 9.33884 15.3471 9.82369 15.6391 10.4077C15.7879 10.6997 15.8925 11.0138 15.9421 11.3388C15.9531 11.4215 15.9642 11.5041 15.9697 11.5868L15.9752 11.6474L15.9807 11.708V11.9449C15.9807 11.9835 15.9752 12.0496 15.9752 12.0882C15.9697 12.1763 15.9586 12.27 15.9476 12.3581C15.9366 12.4463 15.9201 12.5344 15.9036 12.6226C15.887 12.7107 15.865 12.7989 15.8429 12.8815C15.7989 13.0523 15.7438 13.2231 15.6777 13.3939C15.5454 13.7245 15.3691 14.0441 15.1598 14.3361C14.7355 14.9201 14.157 15.3939 13.4958 15.697C13.1653 15.8457 12.8182 15.9559 12.46 16.011C12.2837 16.0441 12.1019 16.0606 11.9201 16.0661H11.6446C11.5454 16.0661 11.4518 16.0606 11.3526 16.0496C10.9669 16.022 10.5868 15.9504 10.2121 15.8457C9.84296 15.741 9.48483 15.5923 9.14324 15.416C8.46555 15.0523 7.85398 14.5565 7.38015 13.9559C7.14324 13.6584 6.93387 13.3333 6.76307 12.9972C6.59228 12.6612 6.45453 12.303 6.35536 11.9449C6.25619 11.5813 6.19558 11.2121 6.16803 10.8375L6.16252 10.7658V10.4518V10.4132V10.2755C6.16803 10.0937 6.18456 9.90083 6.2066 9.7135C6.22864 9.52617 6.2617 9.33333 6.30027 9.14601C6.33883 8.95868 6.38291 8.77135 6.43801 8.58402C6.54269 8.21488 6.67492 7.85675 6.82919 7.52066C7.14324 6.84848 7.55095 6.24793 8.04131 5.76859C8.16252 5.64738 8.28924 5.53719 8.42147 5.427C8.5537 5.32231 8.69145 5.22314 8.8347 5.12948C8.97244 5.03581 9.1212 4.95317 9.26996 4.87603C9.34158 4.83747 9.41872 4.7989 9.49585 4.76584L9.61155 4.71625L9.72726 4.66667C9.88153 4.60055 10.0413 4.54545 10.2066 4.49587C10.2452 4.48485 10.2892 4.47383 10.3278 4.4573C10.3664 4.44628 10.4105 4.43526 10.449 4.42424C10.5317 4.4022 10.6143 4.38017 10.697 4.36364C10.7355 4.35262 10.7796 4.34711 10.8237 4.33609C10.8677 4.32507 10.9063 4.31956 10.9504 4.30854C10.9945 4.30303 11.033 4.29201 11.0771 4.2865L11.1377 4.27548L11.2038 4.26446C11.2479 4.25895 11.2865 4.25344 11.3306 4.24793C11.3801 4.24242 11.4242 4.23691 11.4738 4.23141C11.5124 4.2259 11.5785 4.22039 11.6171 4.21488C11.6446 4.20937 11.6777 4.20937 11.7052 4.20386L11.7658 4.19835L11.7934 4.19284H11.8264C11.876 4.18733 11.9201 4.18733 11.9697 4.18182L12.0413 4.17631H12.0964C12.135 4.17631 12.179 4.1708 12.2176 4.1708C12.3774 4.16529 12.5427 4.16529 12.7025 4.1708C13.022 4.18182 13.3361 4.22039 13.6391 4.27548C14.2507 4.39118 14.8237 4.58402 15.3471 4.84298C15.8705 5.09642 16.3333 5.41047 16.741 5.75207C16.7686 5.7741 16.7906 5.79614 16.8182 5.81818C16.8402 5.84022 16.8677 5.86226 16.8898 5.8843C16.9394 5.92837 16.9834 5.97245 17.033 6.01653C17.0826 6.06061 17.1267 6.10468 17.1708 6.14876C17.2148 6.19284 17.2589 6.23691 17.303 6.2865C17.4738 6.46832 17.6336 6.65014 17.7768 6.83747C18.0633 7.20661 18.2947 7.58127 18.4766 7.93388L18.5096 8L18.5427 8.06612C18.5647 8.11019 18.5867 8.15427 18.6033 8.19835C18.6253 8.24242 18.6418 8.28099 18.6639 8.32507C18.6804 8.36915 18.7024 8.40771 18.719 8.45179C18.7851 8.61708 18.8512 8.77686 18.9008 8.92562C18.9834 9.16804 19.044 9.38292 19.0936 9.57025C19.1102 9.64738 19.1818 9.69697 19.2589 9.68595C19.3416 9.68044 19.4022 9.61432 19.4022 9.53168C19.4077 9.33333 19.4022 9.09642 19.3746 8.82645V8.82645Z" fill="url(#paint0_linear_341_640)"/>
<defs>
<linearGradient id="paint0_linear_341_640" x1="10.2011" y1="-0.0385675" x2="10.2011" y2="-0.000550964" gradientUnits="userSpaceOnUse">
<stop stop-color="#F05A28"/>
<stop offset="1" stop-color="#FBCA0A"/>
</linearGradient>
</defs>
</svg>

<svg xmlns="http://www.w3.org/2000/svg" width="20" height="20" fill="none" viewBox="0 0 20 20">
    <path fill="url(#a)" d="M19.375 8.826a7.5 7.5 0 0 0-.199-1.151 7 7 0 0 0-.518-1.377 7.7 7.7 0 0 0-.964-1.477 7 7 0 0 0-.523-.562c.28-1.119-.342-2.088-.342-2.088-1.074-.066-1.757.336-2.01.518-.045-.017-.084-.039-.128-.055a8 8 0 0 0-.567-.204 9 9 0 0 0-.595-.166 8 8 0 0 0-.617-.12l-.11-.017C12.333.628 10.989 0 10.989 0 9.485.953 9.204 2.287 9.204 2.287l-.017.077c-.082.022-.165.05-.248.071a4 4 0 0 0-.341.121 9 9 0 0 0-.342.138q-.34.15-.672.33a9 9 0 0 0-.628.392L6.9 3.394c-2.083-.793-3.929.16-3.929.16-.17 2.215.832 3.609 1.03 3.862q-.072.207-.137.413a9.6 9.6 0 0 0-.342 1.548c-.01.078-.022.155-.027.232C1.567 10.562 1 12.507 1 12.507c1.603 1.846 3.477 1.961 3.477 1.961l.005-.005q.356.636.821 1.206c.132.16.264.309.408.458-.584 1.675.082 3.063.082 3.063 1.785.066 2.96-.782 3.207-.975a7.9 7.9 0 0 0 2.634.413h.198l.088-.005v.005C12.763 19.83 14.24 20 14.24 20c1.052-1.107 1.113-2.21 1.113-2.446v-.1q.33-.23.628-.5a6.8 6.8 0 0 0 1.096-1.285l.083-.132c1.19.066 2.033-.738 2.033-.738-.199-1.24-.904-1.846-1.053-1.961-.148-.116-.005-.006-.016-.012-.011-.005-.011-.01-.011-.01a.1.1 0 0 0-.028-.017l.017-.226c.01-.132.01-.27.01-.402v-.21l-.005-.082-.005-.11q-.002-.057-.011-.105c-.006-.033-.006-.072-.011-.105l-.011-.104-.017-.105a5 5 0 0 0-.077-.408 5.4 5.4 0 0 0-.606-1.498 5 5 0 0 0-1.008-1.202 5 5 0 0 0-2.678-1.218 4.4 4.4 0 0 0-.71-.038h-.177l-.088.006c-.033 0-.066.005-.094.005a3.9 3.9 0 0 0-1.67.545 4 4 0 0 0-1.007.86c-.276.33-.49.7-.64 1.08a3.8 3.8 0 0 0-.253 1.157c-.005.094-.005.193-.005.287v.071l.005.077c.006.044.006.094.011.138a3 3 0 0 0 .579 1.515c.203.276.451.502.71.684.26.176.54.303.816.385s.55.116.81.116h.143q.025.002.05-.006c.027 0 .055-.005.082-.005.006 0 .017 0 .022-.006l.028-.005c.016 0 .033-.006.05-.006l.093-.016a.4.4 0 0 0 .088-.022c.06-.011.116-.033.17-.05.111-.038.221-.082.315-.132.1-.05.187-.11.276-.165.021-.017.05-.033.071-.056a.21.21 0 0 0 .033-.291.2.2 0 0 0-.259-.05l-.066.033a1.8 1.8 0 0 1-.496.165l-.138.017c-.022 0-.044.005-.071.005h-.132q-.042.001-.083-.005h-.033c-.011 0-.028 0-.039-.006-.027-.005-.05-.005-.077-.01a2.2 2.2 0 0 1-.6-.177 2.1 2.1 0 0 1-.557-.364 2.1 2.1 0 0 1-.672-1.228 2 2 0 0 1-.022-.37c0-.033.005-.066.005-.099v-.044c0-.016.006-.033.006-.05q.01-.098.028-.198a2.65 2.65 0 0 1 1.096-1.708 2.57 2.57 0 0 1 1.432-.452h.171l.06.006q.239.015.47.072a3.3 3.3 0 0 1 2.226 1.719c.148.292.253.606.302.93q.018.125.028.249l.005.06.006.061v.237c0 .038-.006.105-.006.143a5 5 0 0 1-.027.27q-.018.132-.044.265a4.6 4.6 0 0 1-.226.771c-.133.33-.309.65-.518.942a4.26 4.26 0 0 1-1.664 1.361c-.33.149-.678.259-1.036.314a3.5 3.5 0 0 1-.54.055h-.275c-.1 0-.193-.005-.292-.016a6 6 0 0 1-1.14-.204 6 6 0 0 1-1.07-.43 5.65 5.65 0 0 1-2.38-2.419 5.7 5.7 0 0 1-.408-1.052q-.148-.546-.187-1.107l-.005-.072v-.491A6.6 6.6 0 0 1 6.3 9.147a7.4 7.4 0 0 1 .529-1.625A6 6 0 0 1 8.041 5.77c.122-.122.248-.232.38-.342q.199-.157.414-.298c.137-.093.286-.176.435-.253q.11-.06.226-.11l.116-.05.115-.05a5 5 0 0 1 .48-.17c.038-.011.082-.022.12-.039l.122-.033q.124-.035.248-.06c.039-.011.083-.017.127-.028s.082-.016.126-.027c.045-.006.083-.017.127-.022l.06-.012.067-.01c.044-.006.082-.012.127-.017l.143-.017c.038-.005.104-.01.143-.016.028-.006.06-.006.088-.011l.06-.006.028-.005h.033c.05-.006.094-.006.144-.011l.071-.006h.055c.039 0 .083-.005.122-.005a6.5 6.5 0 0 1 1.422.105 6.76 6.76 0 0 1 3.102 1.477c.027.021.049.043.076.065.022.022.05.044.072.066.05.044.093.088.143.133q.074.066.138.132.066.064.132.138a7.2 7.2 0 0 1 1.174 1.647L18.51 8l.033.066q.034.066.06.132c.022.044.039.083.06.127.017.044.04.083.056.127.066.165.132.325.182.474.082.242.143.457.193.644a.147.147 0 0 0 .165.116.15.15 0 0 0 .143-.154c.006-.199 0-.436-.027-.706"/>
    <defs>
        <linearGradient id="a" x1="10.201" x2="10.201" y1="-.039" y2="-.001" gradientUnits="userSpaceOnUse">
            <stop stop-color="#f05a28"/>
            <stop offset="1" stop-color="#fbca0a"/>
        </linearGradient>
    </defs>
</svg>
